!!!!SEGMENT: pl-sa--554-a-ix-34--010_pleyel-ignace--allegro.krn
!!!id: 18xx:573
!!!COM: Pleyel, Ignace
!!!COM-rism: pe24761
!!!CDT: 1757/06/18-1831/11/14
!!!CNT: French
!!!OTL: Allegro
!!!PDT:
!!!SMS-siglum: PL-SA
!!!SMS-shelfmark: 554/A IX 34
!!!SMS-variant:
!!!SMS-altvar:
!!!NIFC-rismID: 1001069626
!!!system-decoration: {(s1,s2)}
**kern	**kern	**dynam
*part1	*part1	*part1
*staff2	*staff1	*
*	*I"Piano	*
*clefF4	*clefG2	*
*k[f#]	*k[f#]	*
*M2/4	*M2/4	*
*>[A,A,B,B1,B,B2,C]	*>[A,A,B,B1,B,B2,C]	*
*>A	*>A	*
*2\right	*2\right	*
!	!LO:TX:b:Bi:t=Allegro&colon;:rj	!
!	!	!LO:DY:b:t=%s&colon;
4r	(>8gg'>\L	p
.	8gg'>\J)	.
=1	=1	=1
*^	*	*
8B/L	2G\	(>8ggsS\L	.
8d/	.	8bb\)	.
8B/	.	8gg'>\	.
8B/J	.	8gg'>\J	.
=2	=2	=2	=2
8B/L	4G\	4.ggsS\	.
8d/	.	.	.
8B/J	8G\	.	.
8r	8ryy	8gg#X\	.
=3	=3	=3	=3
8c/L	2G\	8aa\L	.
8d/	.	8bb\	.
8e/	.	8ccc\	.
8f#/J	.	8ddd\J	.
=4	=4	=4	=4
4g/	4G\	(>8ccc\L	.
.	.	8bb\)	.
4r	4ryy	(>8gg'>\	.
.	.	8gg'>\J)	.
=5	=5	=5	=5
8B/L	2G\	8ggsS\L	.
8d/	.	(>8bb\	.
8B/	.	8gg'>\	.
8B/J	.	8gg'>\J)	.
=6	=6	=6	=6
8B/L	4G\	4.ggsS\	.
8d/	.	.	.
8B/J	8G\	.	.
8r	8ryy	8bb 8gg\	.
*v	*v	*	*
=7	=7	=7
8r	8aaL 8ff#\	.
!LO:TX:a:t=P:mixed beam:problem	!	!
8G\L	8gg 8ee\	.
8A\	8ff# 8dd\	.
8AA/J	8eeJ 8cc#X\	.
=8	=8	=8
8D/L	4dd\	.
8DD/J	.	.
=:|!|:	=:|!|:	=:|!|:
*>B	*>B	*
4r	8dd\L	.
.	8dd\J	.
=9	=9	=9
4c 4A 4D\	(>8dd\L	.
.	8ff#\)	.
4r	8dd'>\	.
.	8dd'>\J	.
=10	=10	=10
4B 4G 4D\	(>8dd\L	.
.	8gg\)	.
4r	8dd'>\	.
.	8dd'>\J	.
=11	=11	=11
*^	*	*
!	!LO:TX:a:t=P:note position:problem	!	!
4A 4F#/	2D\	8aa\L	.
.	.	8cc\	.
.	.	8qdd/	.
4G/	.	8cc\	.
.	.	8b\J	.
=12	=12	=12	=12
8qE/	.	8qcc/	.
8G/L	4D\	8b\L	.
8F#/J	.	8a\	.
4F#\	4r	(>8dd'>\	.
.	.	8dd'>\J)	.
*v	*v	*	*
=13	=13	=13
4c 4A 4F# 4D\	(>8dd\L	.
.	8ff#\)	.
4r	8dd\	.
.	8dd\J	.
=14	=14	=14
4B 4G 4D\	(>8dd\L	.
.	8gg\)	.
4r	8dd'>\	.
.	8dd'>\J	.
=15	=15	=15
*	*^	*
2E-X\	2cc#X/	8r	.
.	.	8b-X\L	.
.	.	8a\	.
.	.	8g\J	.
=16	=16	=16	=16
8D\L	2dd/	8f#\L	.
8F#\	.	8a\	.
8E-X\	.	8g\	.
8D\J	.	8f#\J	.
=17	=17	=17	=17
2E-X\	2cc#X/	8g\L	.
.	.	8b-X\	.
.	.	8a\	.
.	.	8g\J	.
*	*v	*v	*
!!LO:LB:g=original
=18	=18	=18
4D\	4ff# 4dd/	.
4r	8r	.
.	(>16ff#LL 16dd\	.
.	16ee#XJJ 16cc#X\)	.
=19	=19	=19
2r	8dd\L	.
.	16ff#\L	.
.	16ee#X\JJ	.
.	8ff#\L	.
.	16aa\L	.
.	16gg#X\JJ	.
=20	=20	=20
2r	8aa'>\L	.
.	(>16ccc\L	.
.	16bb\JJ)	.
.	8ccc'>\L	.
.	(>16aa\L	.
.	16gg#X\JJ)	.
=21	=21	=21
2r	8aa'>\L	.
.	(>16ff#\L	.
.	16ee#X\JJ)	.
.	8ff#'>\L	.
.	(>16dd\L	.
.	16cc#X\JJ)	.
=22	=22	=22
2r	4dd\	pp
.	8r	.
.	8dd\	.
=23	=23	=23
2r	(>8ee-X\L	.
.	8een\	.
.	8ffn\	.
.	8ff#X\J)	.
=24	=24	=24
4r;>	4r;>	.
4r	8gg\L	.
.	8gg\J	.
=25	=25	=25
*^	*	*
8B/L	2G\	8gg\L	.
8d/	.	8bb\	.
8B/	.	8gg\	.
8B/J	.	8gg\J	.
=26	=26	=26	=26
8B/L	4G\	4.gg\	.
8d/	.	.	.
8B/J	8G\	.	.
8r	8ryy	8gg#X\	.
=27	=27	=27	=27
8c/L	2G\	8aa\L	.
8d/	.	8bb\	.
8e/	.	8ccc\	.
8f#/J	.	8ddd\J	.
=28	=28	=28	=28
!	!LO:SIC:s=4G:v	!	!
4g/	4A\	8ccc\L	.
.	.	8bb\	.
4r	4ryy	8gg\	.
.	.	8gg\J	.
=29	=29	=29	=29
8B/L	2G\	8gg\L	.
8d/	.	8bb\	.
8B/	.	8gg\	.
8B/J	.	8gg\J	.
=30	=30	=30	=30
8B/L	4G\	4.gg\	.
8d/	.	.	.
8B/J	8G\	.	.
8r	8ryy	8dd 8b\	.
*v	*v	*	*
=31	=31	=31
8r	8eeL 8cc\	.
8c\L	8aa 8cc\	.
8d\	8gg 8b\	.
8D\J	8ff#J 8a\	.
=	=	=
!!LO:TX:a:Bi:t=1
*>B1	*>B1	*
!LO:TX:a:t=P:mixed beam:problem	!	!
8G\L	4gg 4b\	.
8GG/J	.	.
=32:|!	=32:|!	=32:|!
!!LO:TX:a:Bi:t=2
*>B2	*>B2	*
*clefG2	*	*
16r	4gg 4b\	.
16g/LL	.	.
16f#/	.	.
16g/JJ	.	.
16f#/LL	8r	.
16g/	.	.
16e/	8ccc\	.
16g/JJ	.	.
=33	=33	=33
*>C	*>C	*
16d/LL	(>8bb'>\L	.
16g/	.	.
16d/	8bb'>\	.
16g/JJ	.	.
16c/LL	8aa'>\	.
16g/	.	.
16c/	8aa'>\J)	.
16g/JJ	.	.
!!LO:LB:g=original
=34	=34	=34
.	8qdd/	.
16B/LL	4ddd\	.
16g/	.	.
16d/	.	.
16g/JJ	.	.
16f#/LL	8r	.
16g/	.	.
16e/	8ccc\	.
16g/JJ	.	.
=35	=35	=35
16d/LL	8bb\L	.
16g/	.	.
16d/	8bb\	.
16g/JJ	.	.
16c/LL	8aa\	.
16g/	.	.
16c/	8aa\J	.
16g/JJ	.	.
=36	=36	=36
.	8qdd/	.
16B/LL	4ddd\	.
16g/	.	.
16d/	.	.
16g/JJ	.	.
*rep	*	*
16B/LL	8r	.
16g/	.	.
.	8qccc#X/	.
16d/	8ddd\	.
16g/JJ	.	.
*Xrep	*	*
=37	=37	=37
*	*tremolo	*
!	!LO:TX:a:t=|:problem	!
!	!LO:TX:a:t=P:w źródle 4 kreski nad tremolo:problem	!
16B/LL	8ffn\L	.
16g/	.	.
16d/	8ffn\	.
16g/JJ	.	.
*rep	*	*
16B/LL	8ffn\	.
16g/	.	.
16d/	8ffn\J	.
16g/JJ	.	.
*Xrep	*	*
*	*Xtremolo	*
=38	=38	=38
4g 4c/	8ee\L	.
.	8gg\J	.
8r	16ff#X\LL	.
.	16ee\	.
8g 8e/	16dd\	.
.	16cc\JJ	.
=39	=39	=39
8gL 8d/	4b/	.
8gJ 8d/	.	.
8f#L 8d/	4a/	.
8f#J 8d/	.	.
=40	=40	=40
*clefF4	*	*
16r	4g/	.
16G\LL	.	.
16F#\	.	.
16G\JJ	.	.
16F#\LL	8r	.
16G\	.	.
16E\	8cc\	.
16G\JJ	.	.
=41	=41	=41
16D\LL	8b/L	.
16G\	.	.
16D\	8b/J	.
16G\JJ	.	.
16C\LL	8a/L	.
16G\	.	.
16C\	8a/J	.
16G\JJ	.	.
=42	=42	=42
.	8qd/	.
16BB\LL	4dd\	.
16G\	.	.
16D\	.	.
16G\JJ	.	.
16F#\LL	8r	.
16G\	.	.
16E\	8cc\	.
16G\JJ	.	.
=43	=43	=43
16D\LL	8b/L	.
16G\	.	.
16D\	8b/	.
16G\JJ	.	.
16C\LL	8a/	.
16G\	.	.
16C\	8a/J	.
16G\JJ	.	.
=44	=44	=44
.	16qd/	.
16BB\LL	4dd\	.
16G\	.	.
16D\	.	.
16G\JJ	.	.
*rep	*	*
16BB\LL	8r	.
16G\	.	.
.	8qcc#X/	.
16D\	8dd\	.
16G\JJ	.	.
*Xrep	*	*
=45	=45	=45
16BB\LL	8fn/L	.
16G#X\	.	.
16D\	8f/	.
16G#\JJ	.	.
*rep	*	*
16BB\LL	8f/	.
16G#\	.	.
16D\	8f/J	.
16G#\JJ	.	.
*Xrep	*	*
=46	=46	=46
!	!LO:TX:a:t=P:mixed beam:problem	!
16C\LL	8e/L	.
16A\	.	.
16E\	8ee\J	.
16A\JJ	.	.
*rep	*	*
16C\LL	16dd\LL	.
16A\	16cc\	.
16E\	16b\	.
16A\JJ	16a\JJ	.
*Xrep	*	*
=47	=47	=47
16D\LL	4g/	.
16B\	.	.
16G\	.	.
16B\JJ	.	.
16D\LL	8.aT>\L	.
16c\	.	.
16F#\	.	.
16c\JJ	32g\LL	.
.	32a\JJJ	.
!!LO:LB:g=original
=48	=48	=48
4B 4G\	4g/	.
4r	8gg\L	.
.	8gg\J	.
=49	=49	=49
*^	*	*
!	!	!	!LO:DY:b:t=%s&colon;
8B/L	2G\	8ggsS\L	p
8d/	.	8bb\	.
8B/	.	8gg\	.
8B/J	.	8gg\J	.
=50	=50	=50	=50
8B/L	4G\	4.ggsS\	.
8d/	.	.	.
8B/J	8G\	.	.
8r	8ryy	8gg#X\	.
=51	=51	=51	=51
!	!LO:TX:a:t=P:note position:problem	!	!
8c/L	2G\	8aa\L	.
8d/	.	8bb\	.
8e/	.	8ccc\	.
8f#/J	.	8ddd\J	.
=52	=52	=52	=52
4g/	4G\	8ccc\L	.
.	.	8bb\	.
4r	4ryy	8gg\	.
.	.	8gg\J	.
=53	=53	=53	=53
8B/L	2G\	8gg\L	.
8d/	.	8bb\	.
8B/	.	8gg\	.
8B/J	.	8gg\J	.
=54	=54	=54	=54
8B/L	4G\	4.gg\	.
8d/	.	.	.
8B/J	8G\	.	.
8r	8ryy	8gg#X\	.
*v	*v	*	*
=55	=55	=55
4r	8aa\L	.
.	8ccc\	.
4c 4A 4D\	8ff#\	.
.	8aa\J	.
=56	=56	=56
*^	*	*
8B/L	4.G\	4.ggsS\	.
8d/	.	.	.
8B/J	.	.	.
8r	8ryy	8gg#X\	.
*v	*v	*	*
=57	=57	=57
4r	8aa\L	.
.	16ccc\L	.
.	16aa\JJ	.
4c 4A 4D\	8ff#\L	.
.	16aa\L	.
.	16ff#\JJ	.
=58	=58	=58
*^	*	*
8B/L	4.G\	4.ggsS\	.
8d/	.	.	.
8B/J	.	.	.
8r	8ryy	8gg#X\	.
*v	*v	*	*
=59	=59	=59
4r	16aa\LL	.
.	16bb\	.
.	16ccc\	.
.	16aa\JJ	.
4c 4A 4D\	16ff#\LL	.
.	16gg\	.
.	16aa\	.
.	16ff#\JJ	.
=60	=60	=60
4B 4G\	4gg\	.
4r	4r	.
=61	=61	=61
2r	4bb 4b\	p
.	4ddd 4dd\	.
=62	=62	=62
2r	4bb 4b\	.
.	4r	.
=63	=63	=63
!	!	!LO:DY:b:rj
4GG 4GGG/	4g 4d 4B/	f
4GG 4GGG/	4g 4d 4B/	.
=64	=64	=64
4GG 4GGG/	4g 4d 4B/	.
4r	4r	.
==	==	==
*-	*-	*-
!!title: @{OTL};
!!!RDF**kern: > = above
!!!RDF**kern: < = below
!!!EED: Wojciech Jakubiak-Danek
!!!EST: 2020-12-15
!!!URL-scan: http://bc.bdsandomierz.pl/dlibra/publication/1310/edition/1278/content
!!!ONB-nifc: Str. 8, s. 1-4
!!!ENC: Marcin Jachim
!!!END: 2020-06-18
